build/img/logo__wawa.svg

<svg width="86" height="37" viewBox="0 0 86 37" fill="none" xmlns="http://www.w3.org/2000/svg">
<g clip-path="url(#clip0)">
<path d="M36.0515 14.6801C34.8154 14.6127 34.6556 14.5874 34.2857 14.3345C34.1427 14.2418 33.8064 14.1745 33.285 14.1323C32.4189 14.0648 32.0153 13.9215 32.0153 13.6602C32.0153 13.5169 31.9564 13.4916 31.578 13.4916C30.8212 13.4916 30.2494 13.3905 30.2494 13.2725C30.2494 13.0618 31.1996 12.8595 32.7384 12.733C33.3355 12.6824 34.2941 12.5223 35.1181 12.3284C36.4467 12.0166 36.4888 11.9997 36.287 11.8733C35.9254 11.6372 35.4796 10.8703 34.9247 9.55527C34.3277 8.12233 34.252 8.0044 33.3607 7.00126C32.3431 5.85491 32.1414 5.48403 32.5198 5.48403C32.6374 5.48403 32.4104 5.20587 31.6873 4.49783C30.3587 3.17455 30.1317 2.71095 30.8464 2.81202C31.0314 2.83739 31.1744 2.84573 31.1744 2.82887C31.1744 2.81202 30.9809 2.576 30.7454 2.30627C30.0055 1.46337 29.9046 1.05043 30.4932 1.25264L30.7454 1.34544L30.552 1.03357C30.3166 0.65426 30.1484 0.182233 30.2157 0.0810839C30.2409 0.0389385 30.3334 0.00522232 30.4259 0.00522232C30.5184 0.00522232 32.2507 0.940764 34.2688 2.07869C38.4564 4.44725 38.4565 4.43883 39.2973 5.95606C39.5832 6.4618 40.0121 7.22885 40.2559 7.65864L40.6931 8.45097L41.1556 7.40577C41.904 5.70319 41.8789 5.82111 41.9209 4.37131C41.9544 2.95523 42.005 2.82045 42.3328 3.23338C42.4843 3.42734 42.4843 3.41048 42.4843 2.24727C42.4843 1.24421 42.501 1.05869 42.6104 1.05869C42.6777 1.05869 42.8038 1.19364 42.8794 1.3537L43.0309 1.64881V0.915477C43.0309 0.182233 43.0729 0.0472833 43.2663 0.165374C43.4597 0.283297 45.5619 5.32396 45.6123 5.78756C45.6797 6.42808 45.5367 6.91697 44.6117 9.1001C44.1492 10.2212 43.8213 11.1146 43.8549 11.1484C43.897 11.1905 44.1324 11.2411 44.3847 11.2664C44.7547 11.3 45.2172 11.2074 46.8989 10.7691C48.0341 10.474 49.2449 10.12 49.5898 9.99358C50.4222 9.69013 51.0865 9.72385 51.8096 10.1116C52.1124 10.2717 52.4235 10.3729 52.617 10.3729C53.0121 10.3729 53.2056 10.4403 53.2056 10.5752C53.2056 10.7522 52.8187 10.8786 52.0451 10.9545C51.6414 10.9966 51.2462 11.0641 51.1706 11.0894C51.0529 11.14 51.0193 11.1062 51.0193 10.9293C51.0193 10.71 50.8175 10.5415 50.5484 10.5415C50.4643 10.5415 50.3129 10.4403 50.2205 10.3223C50.0523 10.1031 50.0438 10.1031 49.8505 10.2633C49.5814 10.4825 49.6655 10.8196 50.0355 11.0219L50.3046 11.1652L49.6739 11.2242C48.7153 11.3169 46.3524 12.1598 44.6454 13.0196C43.8718 13.4073 42.8963 13.8625 42.4759 14.0311C41.038 14.6043 38.8852 14.815 36.0515 14.6801Z" fill="#333333"/>
<path d="M3.13095 36.9329C2.60119 36.8401 2.16394 36.6631 1.97053 36.4356C1.76031 36.208 1.67622 35.3735 1.02874 26.936C0.734433 23.0418 0.364444 18.3299 0.213085 16.4587C0.0112726 13.9721 -0.0391805 13.028 0.0280903 12.9184C0.372937 12.3706 4.54364 11.9407 5.78815 12.3284C6.45244 12.5391 6.62903 12.7077 6.71312 13.205C6.74675 13.4326 6.82243 16.6947 6.87289 20.4456C6.92334 24.2051 6.96538 27.467 6.9822 27.6946C6.99902 28.0739 7.09992 27.8042 8.10898 24.7866C9.28622 21.2464 9.96734 18.9031 10.8923 15.2196L11.4641 12.9437L11.8425 12.7583C12.2966 12.5223 13.8354 12.2525 15.1135 12.1768C16.686 12.0925 17.8885 12.3454 18.1491 12.8342C18.2669 13.0534 18.3762 16.6526 18.4603 23.3959L18.5191 28.1161L19.2591 25.8993C19.6627 24.6855 20.2429 22.8227 20.5457 21.7691C21.0166 20.1337 22.9338 13.0449 22.9338 12.9437C22.9338 12.8594 23.4635 12.6487 24.0605 12.4886C25.0695 12.2189 26.3393 12.1093 27.0708 12.2273C27.7351 12.3284 27.9874 12.4465 28.1976 12.7837C28.3322 12.9859 28.3322 13.045 28.1135 13.9384C27.3651 16.9897 21.8237 32.6594 20.4951 35.4662L20.0915 36.326L19.5113 36.4946C17.6277 37.0593 14.7267 37.1689 13.8353 36.7053C13.7092 36.6378 13.5494 36.503 13.4821 36.3934C13.2804 36.0815 13.0617 32.9291 12.8263 26.9107C12.7758 25.4188 12.7001 24.2219 12.6665 24.2555C12.6329 24.2977 12.1873 25.6885 11.6742 27.3659C10.1102 32.4739 9.23568 34.9942 8.6976 35.955C8.54616 36.2333 8.42852 36.3175 8.05845 36.444C6.93175 36.8149 4.14001 37.093 3.13095 36.9329ZM27.4745 36.8064C25.2294 36.149 23.9681 34.067 24.2792 31.4961C24.6324 28.4953 25.9862 26.7505 28.677 25.8318C29.0134 25.7138 30.3335 25.3345 31.6285 24.9889C33.8653 24.382 35.32 23.9015 35.6648 23.6487C35.7825 23.5559 35.8329 23.3874 35.8666 22.949C35.917 22.1989 35.7993 21.8448 35.3368 21.4234C34.6725 20.8165 33.6803 20.6816 32.8057 21.0946C32.3517 21.3054 32.1414 21.5414 31.679 22.3254C31.3341 22.9238 31.2585 22.9997 30.754 23.2526C29.7954 23.7246 28.1219 23.9269 27.5081 23.6403C27.1045 23.4464 26.97 23.2189 26.97 22.7215C26.97 21.4319 27.9875 19.9737 29.787 18.7009C31.4014 17.546 33.3439 16.9475 35.4125 16.9475C37.027 16.9561 38.1285 17.1751 39.2301 17.7147C40.7857 18.4733 41.4753 19.6196 41.5761 21.6257C41.6349 22.7973 41.5761 23.3283 40.7688 28.8662C40.2811 32.221 40.1214 33.4685 40.1802 33.6623C40.2223 33.8056 40.3652 34.0585 40.4913 34.2187C40.8529 34.6739 40.9286 34.8509 40.9286 35.2639C40.9286 36.0225 40.2811 36.5283 38.9778 36.7979C38.1369 36.9665 36.7158 36.9665 36.1523 36.7979C35.3114 36.545 34.9919 36.0983 34.622 34.6654L34.5294 34.2945L34.0921 34.7075C33.0831 35.6684 31.9479 36.3512 30.8212 36.6799C30.0476 36.9077 28.0632 36.9834 27.4745 36.8064ZM32.6376 32.4233C33.2347 32.1283 34.0082 31.4793 34.454 30.8976L34.8239 30.4171L35.1014 28.6892C35.2611 27.7367 35.3704 26.9359 35.3452 26.919C35.3284 26.9023 34.95 27.0876 34.5127 27.3405C34.0756 27.5934 33.1169 28.116 32.3685 28.4869C30.5438 29.4141 29.9804 29.9873 29.8542 31.0241C29.7954 31.5636 29.8627 31.7996 30.1821 32.1199C30.7876 32.7268 31.7715 32.8532 32.6376 32.4233ZM45.1498 36.7727C44.9144 36.68 44.6369 36.5451 44.5528 36.4693C44.3174 36.2585 44.2837 35.9214 43.8297 30.1811C43.5774 26.9866 42.9803 19.8555 42.8121 18.1528C42.7701 17.6724 42.7785 17.6218 42.9635 17.5039C43.0812 17.428 43.468 17.2846 43.838 17.1835C44.393 17.0317 44.7377 17.0065 46.0159 16.9981C47.6891 16.9896 48.2947 17.1077 48.5469 17.4953C48.7151 17.7567 48.7992 19.4593 48.9253 25.2922C48.9758 27.821 49.0262 29.8946 49.043 29.9114C49.0766 29.9451 50.3128 26.1941 50.6407 25.0394C50.8089 24.4578 51.3049 22.5865 51.7339 20.8755C52.2133 19.0127 52.5833 17.7062 52.6674 17.605C52.9954 17.2426 54.509 16.9475 56.0394 16.9475C57.7211 16.9475 58.3518 17.1836 58.4527 17.8579C58.5453 18.4479 59.075 28.1077 59.1002 29.549C59.1086 29.9705 59.1086 29.9705 59.4365 29.0011C59.9663 27.467 60.6138 25.1153 61.5724 21.2464C62.3124 18.2204 62.4805 17.6472 62.6402 17.5207C63.2288 17.0825 65.617 16.8042 66.8279 17.0318C67.4753 17.1583 67.7023 17.2847 67.7361 17.5629C67.837 18.4311 62.531 32.4065 60.8913 35.5842C60.5381 36.2585 60.4793 36.3343 60.1092 36.4946C59.3861 36.8064 58.2677 36.9413 56.8634 36.9076C55.2825 36.857 54.8369 36.6884 54.6939 36.0815C54.6014 35.6769 54.0885 28.0318 54.0465 26.3881C54.038 26.3207 53.8026 27.0203 53.5083 27.9475C52.5917 30.8808 51.65 33.3674 50.7502 35.2219C50.3213 36.1153 50.212 36.2755 49.9429 36.4104C49.3375 36.7138 48.4293 36.8655 46.9831 36.8992C45.789 36.9244 45.5367 36.9077 45.1498 36.7727ZM68.2321 36.798C66.8194 36.4103 65.7683 35.4072 65.247 33.9574C65.0536 33.4095 65.0283 33.2242 65.0283 32.2042C65.0367 31.2601 65.0704 30.9314 65.247 30.257C65.6759 28.647 66.5336 27.3912 67.7023 26.6494C68.6273 26.0678 69.2665 25.8401 72.2347 25.0394C74.6985 24.3736 75.2198 24.205 76.0019 23.8425C76.5484 23.5981 76.5653 23.5811 76.6157 23.2103C76.6998 22.5528 76.6663 22.2241 76.4728 21.8785C75.8001 20.69 73.8913 20.4962 72.9916 21.5245C72.8486 21.6931 72.5711 22.0977 72.3862 22.418C72.075 22.949 71.9909 23.0333 71.5116 23.2609C70.5699 23.7161 68.9385 23.9184 68.2995 23.6571C67.8538 23.4716 67.7277 23.2019 67.7697 22.5276C67.8202 21.6172 68.2575 20.8165 69.216 19.8471C71.3014 17.7735 73.7063 16.8463 76.7084 16.9727C79.786 17.0992 81.6191 18.2287 82.1741 20.3276C82.359 21.0272 82.4096 22.1989 82.3087 23.2693C82.2498 23.8004 81.905 26.3037 81.5351 28.824C80.7951 33.9067 80.8035 33.6454 81.3501 34.3451C81.7453 34.8592 81.8041 35.3818 81.5267 35.8707C81.1315 36.5536 79.7441 36.9665 78.0286 36.9076C76.3384 36.8486 75.8759 36.5029 75.4807 35.0278L75.2957 34.3199L74.623 34.9099C73.3785 35.9804 72.3442 36.5367 71.0998 36.7896C70.3176 36.9498 68.7956 36.9582 68.2321 36.798ZM73.4625 32.3727C74.0176 32.0946 75.119 31.1084 75.4217 30.6195C75.5564 30.3919 75.674 29.8777 75.8758 28.6302C76.0272 27.703 76.1365 26.9276 76.1281 26.9107C76.1113 26.8938 75.7581 27.0793 75.3545 27.3153C74.9425 27.5513 73.9838 28.0655 73.2187 28.4532C72.4534 28.8494 71.6715 29.2961 71.4781 29.4647C71.2847 29.6333 71.0156 29.9873 70.8727 30.2823C70.3093 31.4034 70.654 32.28 71.7808 32.6003C72.3189 32.7521 72.8655 32.6762 73.4625 32.3727ZM84.0072 21.2801C83.612 21.0778 83.368 20.6479 83.3597 20.1169C83.3513 19.5436 83.5783 19.156 84.066 18.9114C84.52 18.6754 84.8396 18.6671 85.302 18.8861C85.7898 19.1054 86.0001 19.4677 86.0001 20.0915C86.0001 20.6395 85.8654 20.9345 85.5123 21.2041C85.2096 21.4318 84.3771 21.474 84.0072 21.2801ZM85.0331 20.9513C85.26 20.8503 85.2685 20.8418 85.0918 20.8334C84.9657 20.8249 84.8396 20.7238 84.7134 20.5131L84.5285 20.1927L84.5032 20.5131C84.478 20.7575 84.4444 20.8249 84.3098 20.8249C84.1669 20.8249 84.1501 20.7575 84.1501 20.0916C84.1501 19.4258 84.1416 19.3667 84.0155 19.4848C83.9482 19.5606 83.8641 19.7713 83.8389 19.9568C83.78 20.3867 83.9903 20.7997 84.3434 20.9514C84.6714 21.0946 84.7219 21.0946 85.0331 20.9513ZM85.5543 19.9483C85.4955 19.51 85.1086 19.139 84.7134 19.139C84.2342 19.139 84.1837 19.2823 84.6462 19.3245C84.8816 19.3497 85.1255 19.4172 85.2012 19.4762C85.3609 19.6111 85.3694 20.0578 85.2012 20.1169C85.0415 20.1843 85.0415 20.2769 85.218 20.5383L85.3526 20.7575L85.4787 20.5215C85.5543 20.3782 85.5796 20.1674 85.5543 19.9483ZM84.8901 19.7966C84.8312 19.628 84.4865 19.6027 84.4865 19.7629C84.4865 19.8557 84.5621 19.8978 84.7051 19.8978C84.8396 19.8977 84.9069 19.8556 84.8901 19.7966Z" fill="#333333"/>
</g>
<defs>
<clipPath id="clip0">
<rect width="86" height="37" fill="white"/>
</clipPath>
</defs>
</svg>

<svg width="86" height="37" fill="none" xmlns="http://www.w3.org/2000/svg"><g clip-path="url(#clip0)" fill="#333"><path d="M36.051 14.68c-1.236-.067-1.395-.093-1.765-.345-.143-.093-.48-.16-1.001-.203-.866-.067-1.27-.21-1.27-.472 0-.143-.059-.168-.437-.168-.757 0-1.329-.102-1.329-.22 0-.21.95-.412 2.49-.539.597-.05 1.555-.21 2.38-.405 1.328-.311 1.37-.328 1.168-.455-.362-.236-.807-1.003-1.362-2.318-.597-1.433-.673-1.55-1.564-2.554-1.018-1.146-1.22-1.517-.841-1.517.117 0-.11-.278-.833-.986-1.328-1.323-1.555-1.787-.84-1.686.184.025.327.034.327.017s-.193-.253-.429-.523c-.74-.843-.84-1.256-.252-1.053l.252.092-.193-.311c-.235-.38-.404-.852-.336-.953.025-.042.117-.076.21-.076.092 0 1.825.936 3.843 2.074 4.187 2.368 4.188 2.36 5.028 3.877.286.506.715 1.273.959 1.703l.437.792.463-1.045c.748-1.703.723-1.585.765-3.035.033-1.416.084-1.55.412-1.138.151.194.151.177.151-.986 0-1.003.017-1.188.126-1.188.068 0 .194.135.27.295l.15.295V.915c0-.733.043-.868.236-.75.194.118 2.296 5.159 2.346 5.623.068.64-.075 1.129-1 3.312-.463 1.121-.79 2.015-.757 2.048.042.043.277.093.53.118.37.034.832-.059 2.514-.497 1.135-.295 2.346-.649 2.69-.775.833-.304 1.498-.27 2.22.118.303.16.614.26.808.26.395 0 .589.068.589.203 0 .177-.387.304-1.16.38-.405.042-.8.11-.875.134-.118.051-.152.017-.152-.16 0-.219-.201-.388-.47-.388-.085 0-.236-.1-.328-.219-.169-.219-.177-.219-.37-.059-.27.22-.185.557.184.759l.27.143-.631.06c-.959.092-3.322.935-5.029 1.795-.773.387-1.749.843-2.17 1.011-1.437.573-3.59.784-6.424.65zM3.131 36.933c-.53-.093-.967-.27-1.16-.497-.21-.228-.295-1.063-.942-9.5a2485.97 2485.97 0 00-.816-10.477c-.202-2.487-.252-3.431-.185-3.54.345-.548 4.516-.978 5.76-.59.664.21.841.379.925.876.034.228.11 3.49.16 7.24.05 3.76.092 7.022.11 7.25.016.379.117.11 1.126-2.908 1.177-3.54 1.858-5.884 2.783-9.567l.572-2.276.378-.186c.455-.236 1.993-.505 3.271-.581 1.573-.085 2.776.168 3.036.657.118.22.227 3.819.311 10.562l.06 4.72.74-2.217c.403-1.213.983-3.076 1.286-4.13.47-1.635 2.388-8.724 2.388-8.825 0-.085.53-.295 1.127-.455 1.009-.27 2.278-.38 3.01-.262.664.101.916.22 1.127.557.134.202.134.261-.085 1.154-.748 3.052-6.29 18.721-7.618 21.528l-.404.86-.58.169c-1.883.564-4.784.674-5.676.21a1.063 1.063 0 01-.353-.312c-.202-.312-.42-3.464-.656-9.482-.05-1.492-.126-2.69-.16-2.655-.033.042-.479 1.433-.992 3.11-1.564 5.108-2.438 7.628-2.976 8.589-.152.278-.27.363-.64.489-1.126.37-3.918.649-4.927.489zm24.343-.127c-2.245-.657-3.506-2.739-3.195-5.31.353-3 1.707-4.745 4.398-5.664.336-.118 1.657-.498 2.951-.843 2.237-.607 3.692-1.088 4.037-1.34.117-.093.168-.262.202-.7.05-.75-.068-1.104-.53-1.526-.665-.606-1.657-.741-2.531-.328-.454.21-.665.446-1.127 1.23-.345.599-.42.675-.925.928-.959.472-2.632.674-3.246.387-.403-.194-.538-.421-.538-.919 0-1.29 1.018-2.747 2.817-4.02 1.614-1.155 3.557-1.753 5.626-1.753 1.614.008 2.716.227 3.817.767 1.556.758 2.245 1.905 2.346 3.91.059 1.172 0 1.703-.807 7.241-.488 3.355-.648 4.602-.589 4.796.042.144.185.397.311.557.362.455.438.632.438 1.045 0 .758-.648 1.264-1.951 1.534-.841.169-2.262.169-2.826 0-.84-.253-1.16-.7-1.53-2.133l-.093-.37-.437.413c-1.009.96-2.144 1.643-3.27 1.972-.774.228-2.759.303-3.348.126zm5.164-4.383c.597-.295 1.37-.944 1.816-1.525l.37-.48.277-1.729c.16-.952.27-1.753.244-1.77-.017-.017-.395.169-.832.421-.437.253-1.396.776-2.145 1.147-1.824.927-2.388 1.5-2.514 2.537-.059.54.009.776.328 1.096.606.607 1.59.733 2.456.303zm12.512 4.35c-.236-.093-.513-.228-.597-.304-.236-.21-.27-.548-.723-6.288-.253-3.194-.85-10.326-1.018-12.028-.042-.48-.033-.531.152-.65.117-.075.504-.218.874-.32.555-.151.9-.177 2.178-.185 1.673-.008 2.279.11 2.53.497.17.262.253 1.964.38 7.797.05 2.529.1 4.603.117 4.62.034.033 1.27-3.718 1.598-4.873.168-.581.664-2.453 1.093-4.164.48-1.862.85-3.169.933-3.27.328-.362 1.842-.657 3.372-.657 1.682 0 2.313.236 2.414.91.092.59.622 10.25.647 11.691.009.422.009.422.337-.548.53-1.534 1.177-3.886 2.135-7.755.74-3.026.908-3.599 1.068-3.725.589-.439 2.977-.717 4.188-.49.647.127.874.254.908.532.101.868-5.205 14.844-6.845 18.021-.353.674-.412.75-.782.91-.723.312-1.841.447-3.246.414-1.58-.051-2.026-.22-2.17-.827-.092-.404-.604-8.05-.646-9.693-.009-.067-.244.632-.539 1.56-.916 2.933-1.858 5.42-2.758 7.274-.429.893-.538 1.053-.807 1.188-.605.304-1.514.456-2.96.49-1.194.024-1.446.008-1.833-.127zm23.082.025c-1.413-.388-2.464-1.39-2.985-2.84-.193-.548-.219-.734-.219-1.754.009-.944.042-1.273.219-1.947.429-1.61 1.287-2.866 2.455-3.608.925-.581 1.564-.809 4.533-1.61 2.463-.665 2.985-.834 3.767-1.197.546-.244.563-.26.614-.632.084-.657.05-.986-.143-1.332-.673-1.188-2.582-1.382-3.481-.354a7.63 7.63 0 00-.606.894c-.311.531-.395.615-.874.843-.942.455-2.573.657-3.213.396-.445-.185-.571-.455-.53-1.13.051-.91.488-1.71 1.447-2.68 2.085-2.074 4.49-3 7.492-2.874 3.078.126 4.911 1.256 5.466 3.355.185.7.236 1.87.135 2.941-.06.531-.404 3.035-.774 5.555-.74 5.083-.731 4.821-.185 5.521.395.514.454 1.037.177 1.526-.395.683-1.783 1.096-3.498 1.037-1.69-.06-2.153-.405-2.548-1.88l-.185-.708-.673.59c-1.245 1.07-2.279 1.627-3.523 1.88-.782.16-2.304.168-2.868.008zm5.23-4.425c.556-.278 1.657-1.265 1.96-1.753.134-.228.252-.742.454-1.99.151-.927.26-1.702.252-1.72-.017-.016-.37.17-.773.405a61.39 61.39 0 01-2.136 1.138c-.766.396-1.547.843-1.74 1.012a2.993 2.993 0 00-.606.817c-.564 1.121-.219 1.998.908 2.318.538.152 1.084.076 1.681-.227zM84.008 21.28c-.395-.202-.639-.632-.647-1.163-.009-.573.218-.961.706-1.206.454-.236.774-.244 1.236-.025.488.22.698.582.698 1.206 0 .548-.135.843-.488 1.112-.302.228-1.135.27-1.505.076zm1.026-.329c.227-.1.236-.11.059-.118-.126-.008-.252-.11-.379-.32l-.184-.32-.026.32c-.025.244-.059.312-.193.312-.143 0-.16-.067-.16-.733 0-.666-.008-.725-.135-.607-.067.076-.15.286-.176.472-.059.43.151.843.504.994.328.144.379.144.69 0zm.521-1.003c-.058-.438-.445-.809-.84-.809-.48 0-.53.143-.068.186.236.025.48.092.555.151.16.135.168.582 0 .64-.16.068-.16.16.017.422l.135.22.126-.236c.075-.144.1-.355.075-.574zm-.664-.151c-.059-.169-.403-.194-.403-.034 0 .093.075.135.218.135.135 0 .202-.042.185-.101z"/></g><defs><clipPath id="clip0"><path fill="#fff" d="M0 0h86v37H0z"/></clipPath></defs></svg>
